X:1
T:He’s blest whose sins have pardon gained
T:Stephen Jarvis
T:Text: Tate/Brady, on Ps. 32
T:Edition by Edmund Gooch released into the public domain, January 2011. As such, it may be freely copied and performed.
T:He’s blest whose sins have pardon gained
T:Psalm 32nd. 1st 7th 10th & 11th Verses.
C:Stephen Jarvis
Z:Text: Tate/Brady, on Ps. 32
%%score [ 1 2 3 4 ]
L:1/8
M:3/4
K:Bb
V:1 treble nm="Soprano" snm="S."
V:2 treble nm="Alto" snm="A."
V:3 treble-8 transpose=-12 nm="Tenor" snm="T."
V:4 bass nm="Bass" snm="B."
V:1
"^Moderato" B2 (d>B) (c>A) | (B2 F2) G2 | (FB/>d/ ec) (dB) | (d2 c2) (de/f/) | (fe d2) c2 | %5
w: Sor- rows _ on _|sor- * rows|mul- * * * * ti- *|plied _ The _ _|har- * * den’d|
w: He’s blest _ whose _|sins _ have|par- * * * * don _|gained, _ No _ _|more _ _ in|
w: Thy fa- * vour, _|Lord, _ in|all _ _ _ _ dis- *|tress, _ My _ _|tow’r _ _ of|
 (B2 A2) G2 | (Ff ed) (c>B) | B4 d2 | (B2 G2) e2 | (c2 A2) f2 | (d2 B2) A2 | G4 c2 | (d3 f) (=ed) | %13
w: sin- * ner|shall _ _ _ con- *|found; But|them _ who|in _ his|truth _ con-|fide Bless-|ings _ of _|
w: judg- * ment|to _ _ _ ap- *|pear: Whose|guilt _ re-|mis- * sion|has _ ob-|tained, And|whose _ re- *|
w: re- * fuge|I _ _ _ must _|own; Thou|shalt _ my|haugh- * ty|foes _ sup-|press, And|me _ with _|
 (c3 d) (cA) | (F3 A) G2 | F4!p! B2 | (Bc/B/ AB) c2 | (cd/c/ Bc) d2 | (de/d/ cd) (ef) | %19
w: mer- * cy _|shall _ sur-|round, but|them _ _ _ _ who|in _ _ _ _ his|truth _ _ _ _ con- *|
w: pen- * tance _|is _ sin-|cere, whose|guilt _ _ _ _ re-|mis- * * * * sion|has _ _ _ _ ob- *|
w: songs _ of _|tri- * umph|crown, thou|shalt _ _ _ _ my|haugh- * * * * ty|foes _ _ _ _ sup- *|
 !fermata!g4"^["!f!"^]" g2 | (f2 c>d) e2 | (d2 GA) B2 | (d/c/B/c/ d2) Tc2 | B4 |] %24
w: fide bless-|ings _ _ of|mer- * * cy|shall _ _ _ _ sur-|round.|
w: tained, and|whose _ _ re-|pen- * * tance|is _ _ _ _ sin-|cere.|
w: press, and|me _ _ with|songs _ _ of|tri- * * * * umph|crown.|
V:2
 D2 (F>D) (E>C) | D4 E2 | (D F3) (FB) | (B2 A2) F2 | (B3 A) G2 | F4 (B,C) | (DF G2) (FE) | D4 F2 | %8
w: Sor- rows _ on _|sor- rows|mul- * ti- *|plied _ The|har- * den’d|sin- ner _|shall _ _ con- *|found; But|
w: He’s blest _ whose _|sins have|par- * don _|gained, _ No|more _ in|judg- ment _|to _ _ ap- *|pear: Whose|
w: Thy fa- * vour, _|Lord, in|all _ dis- *|tress, _ My|tow’r _ of|re- fuge _|I _ _ must _|own; Thou|
 G4 G2 | (A2 F2) A2 | (B2 G2) F2 | (F2 =E2) F2 | F4 F2 | (F2 G2) F2 | (F2 AF) =E2 | %15
w: them who|in _ his|truth _ con-|fide _ Bless-|ings of|mer- * cy|shall _ _ sur-|
w: guilt re-|mis- * sion|has _ ob-|tained, _ And|whose re-|pen- * tance|is _ _ sin-|
w: shalt my|haugh- * ty|foes _ sup-|press, _ And|me with|songs _ of|tri- * * umph|
 F4"^["!p!"^]" D2 | (D2 CD) E2 | (E2 DE) F2 | (Bc/B/ AB) (cd) | !fermata!e4"^["!f!"^]" (G>A) | %20
w: round, but|them _ _ who|in _ _ his|truth _ _ _ _ con- *|fide bless- *|
w: cere, whose|guilt _ _ re-|mis- * * sion|has _ _ _ _ ob- *|tained, and _|
w: crown, thou|shalt _ _ my|haugh- * * ty|foes _ _ _ _ sup- *|press, and _|
 (B2 A2) A2 | (BF GE) F2 | (GF/G/ F2 E>)C | D4 |] %24
w: ings _ of|mer- * * * cy|shall _ _ _ _ sur-|round.|
w: whose _ re-|pen- * * * tance|is _ _ _ _ sin-|cere.|
w: me _ with|songs _ _ _ of|tri- * * * * umph|crown.|
V:3
 B2 B2 F2 | F4 B2 | (Bd ce) (df) | f4 A2 | (B>c d2) e2 | F4 (GA) | (Bd cB) A2 | B4 (BA) | G4 (cB) | %9
w: Sor- rows on|sor- rows|mul- * * * ti- *|plied The|har- * * den’d|sin- ner _|shall _ _ _ con-|found; But _|them who _|
w: He’s blest whose|sins have|par- * * * don _|gained, No|more _ _ in|judg- ment _|to _ _ _ ap-|pear: Whose _|guilt re- *|
w: Thy fa- vour,|Lord, in|all _ _ _ dis- *|tress, My|tow’r _ _ of|re- fuge _|I _ _ _ must|own; Thou _|shalt my _|
 A4 (dc) | B4 c2 | c4 f2 | d4 B2 | (c2 B2) (Af) | (c>d c2) B2 | A4 z2 | z6 | z6 | z6 | z4 B2 | %20
w: in his _|truth con-|fide Bless-|ings of|mer- * cy _|shall _ _ sur-|round,||||bless-|
w: mis- sion _|has ob-|tained, And|whose re-|pen- * tance _|is _ _ sin-|cere,||||and|
w: haugh- ty _|foes sup-|press, And|me with|songs _ of _|tri- * * umph|crown,||||and|
 (B2 c3) f | (fd Bc) (dB) | (G/e/d/c/ B2) A2 | B4 |] %24
w: ings _ of|mer- * * * cy _|shall _ _ _ _ sur-|round.|
w: whose _ re-|pen- * * * tance _|is _ _ _ _ sin-|cere.|
w: me _ with|songs _ _ _ of _|tri- * * * * umph|crown.|
V:4
 B,,2 B,,2 B,,2 | B,,4 B,,2 | (B,,2 A,,2) B,,2 | F,4 F,2 | (G,3 F,) E,2 | (D,B,, C,D,) E,2 | %6
w: Sor- rows on|sor- rows|mul- * ti-|plied The|har- * den’d|sin- * * * ner|
w: He’s blest whose|sins have|par- * don|gained, No|more _ in|judg- * * * ment|
w: Thy fa- vour,|Lord, in|all _ dis-|tress, My|tow’r _ of|re- * * * fuge|
 (D,2 E,2) F,2 | B,,4 B,,2 | E,4 C,2 | F,4 D,2 | G,4 (A,>B,) | C4 A,2 | B,4 B,2 | (A,2 =E,2) F,2 | %14
w: shall _ con-|found; But|them who|in his|truth con- *|fide Bless-|ings of|mer- * cy|
w: to _ ap-|pear: Whose|guilt re-|mis- sion|has ob- *|tained, And|whose re-|pen- * tance|
w: I _ must|own; Thou|shalt my|haugh- ty|foes sup- *|press, And|me with|songs _ of|
 (A,>B, C2) C,2 | F,4 z2 |"^[Inst.]" F,6 | B,6 | (B,F, E,D,) (C,B,,) | %19
w: shall _ _ sur-|round,||||
w: is _ _ sin-|cere,||||
w: tri- * * umph|crown,||||
"^Original order of staves is Counter - Tenor - Treble - Bass: the counter part is notated in the source in the treble clef, anoctave above sounding pitch.The vocal bass part is figured in the source: this figuring has been omitted from the present edition to facilitate theunderlaying of the text. The first verse only of the text is given in the source: subsequent verses have been addededitorially, on the basis of the title 'Psalm 32nd. 1st 7th 10th & 11th Verses' in the source.Small grace notes printed in the source have been written out in full-sized notes in the present edition.The counter part from beat 3 of bar 15 to beat 2 of bar 19 in this edition is printed in small notes on the treble stave in thesource, and has been separated out editorially: this part may be sung by altos or divisi sopranos." !fermata!E,,4 E,2 | %20
w: * bless-|
w: * and|
w: * and|
 (D,2 F,2) C,2 | (B,,2 E,2) D,2 | (C,D,/E,/ F,2) F,2 | B,,4 |] %24
w: ings _ of|mer- * cy|shall _ _ _ sur-|round.|
w: whose _ re-|pen- * tance|is _ _ _ sin-|cere.|
w: me _ with|songs _ of|tri- * * * umph|crown.|

